**kern	**kern	**dynam
*part1	*part1	*part1
*staff2	*staff1	*
*I"Piano	*	*
*clefF4	*clefG2	*
*k[f#c#g#d#a#]	*k[f#c#g#d#a#]	*
=1	=1	=1
4BBB-X	8fnL	.
.	8dn	.
4FFn	8B-X	.
.	8A-X	.
4BB-X	8B-	.
.	8dJ	.
=	=	=
4EE-X	8gnL	.
.	8e-X	.
4BB-X	8B-X	.
.	8Gni	.
4E-X	8B-	.
.	8e-J	.
=	=	=
4AA-X	8a-XL	.
.	8e-X	.
4E-X	8c-X	.
.	8A-X	.
4A-X	8c-	.
.	8e-J	.
=	=	=
4FF#X	8a#XL	.
.	8f#X	.
4C#X	8c#X	.
.	8A#X	.
4F#	8c#	.
.	8f#J	.
=	=	=
4FF#	8cc#L	.
.	8a#	.
4F#	8f#	.
.	8c#	.
4A#	8f#	.
.	8a#J	.
=	=	=
!	!LO:TX:a:B:t=a Tempo	!
4BBB	8dd#L 8bb	f
.	8b	.
4FF#	8b 8ff#	.
.	8f#	.
4BB	8f# 8dd#	.
.	8d#J	.
=	=	=
4BBB	8bL 8ff#	.
.	8f#	.
4FF#	8f# 8dd#	.
.	8d#J	.
4BB	8d#L 8b	.
.	8BJ	.
=	=	=
*-	*-	*-
!!!system-decoration: {(s1,s2)}
!!!RDF**kern: i = editorial accidental
